material/.icons/material/monitor-lock.svg

<svg xmlns="http://www.w3.org/2000/svg" viewBox="0 0 24 24"><path d="M20.5 13a2.5 2.5 0 012.5 2.5v.5a1 1 0 011 1v4a1 1 0 01-1 1h-5a1 1 0 01-1-1v-4a1 1 0 011-1v-.5a2.5 2.5 0 012.5-2.5m0 1a1.5 1.5 0 00-1.5 1.5v.5h3v-.5a1.5 1.5 0 00-1.5-1.5M20 4H2v12h13v2h-2v2h2v2H7v-2h2v-2H2a2 2 0 01-2-2V4c0-1.11.89-2 2-2h18a2 2 0 012 2v7.53c-.59-.34-1.27-.53-2-.53V4z"/></svg>

<?xml version="1.0" encoding="UTF-8"?><!DOCTYPE svg PUBLIC "-//W3C//DTD SVG 1.1//EN" "http://www.w3.org/Graphics/SVG/1.1/DTD/svg11.dtd"><svg xmlns="http://www.w3.org/2000/svg" xmlns:xlink="http://www.w3.org/1999/xlink" version="1.1" id="mdi-monitor-lock" width="24" height="24" viewBox="0 0 24 24"><path d="M20.5,13A2.5,2.5 0 0,1 23,15.5V16A1,1 0 0,1 24,17V21A1,1 0 0,1 23,22H18A1,1 0 0,1 17,21V17A1,1 0 0,1 18,16V15.5A2.5,2.5 0 0,1 20.5,13M20.5,14A1.5,1.5 0 0,0 19,15.5V16H22V15.5A1.5,1.5 0 0,0 20.5,14M20,4H2V16H15V18H13V20H15V22H7V20H9V18H2C0.89,18 0,17.1 0,16V4C0,2.89 0.89,2 2,2H20A2,2 0 0,1 22,4V11.53C21.41,11.19 20.73,11 20,11V4Z" /></svg>
